X: 40577
T: Tommy's Foot
R: reel
M: 4/4
K: Dmajor
|:d3 c B2 A2|GFGA B2 A2|A3 c dcBA|d2 e2 fdec|
d2 dc B2 A2|DFAc dcde|fage fdec|1 dfec d2 Bc:|2 dfec defg||
|:a2 (3gag fedc|BAGF EDB,D|A,2 (3DDD FAdc|dBAG FA d2|
cdef edce|fef^g a2 f2|eage fdec|d3 c defg:|
.a zz .a z z a^g|^gefd ec d2|efed c2 ef|ed c4 B2|
A2 AB cABc|dBcd e3 e|fef^g ae^ga|f^ged e4|
.a zz .a z z a^g|^gefd ec d2|efed c2 A2|AcBc dc/d/ c/d/c/B/|
A2 AB cABc|dBcd e2 fe|.^g2 .a2 =gfef|gedc d2 A2||

